build/logo/SpaceOpsSolid.svg

<svg xmlns="http://www.w3.org/2000/svg" fill="none" viewBox="0 0 24 24" focusable="false"><path d="M0 0H24V24H0z"/><path fill="#74767B" fill-rule="evenodd" d="M9.99996 12C9.99996 8.68629 12.6863 6 16 6C19.3137 6 22 8.68629 22 12C22 15.3137 19.3137 18 16 18C12.6863 18 9.99996 15.3137 9.99996 12ZM8.99996 7.09011C8.28996 7.24011 7.62996 7.54011 7.05996 7.95011C6.16996 8.60011 5.55996 9.48011 5.23996 10.4501C5.10208 10.8719 5.0234 11.3002 4.99993 11.7251L4.99993 10.0002C4.99993 9.44022 4.53993 8.98022 4.00993 9.16022C3.72993 9.26022 3.46993 9.40022 3.22993 9.57022C2.69993 9.95022 2.32993 10.4902 2.13993 11.0702C1.93993 11.6902 1.94993 12.3402 2.13993 12.9202C2.34993 13.5502 2.73993 14.0602 3.22993 14.4202C3.47993 14.6002 3.73993 14.7402 4.00993 14.8302C4.53993 15.0102 4.99993 14.5502 4.99993 14.0002L4.99993 12.2702C5.024 12.7055 5.10549 13.1325 5.23996 13.5401C5.57996 14.5801 6.22996 15.4401 7.05996 16.0401C7.65996 16.4801 8.31996 16.7601 8.99996 16.9001C9.53996 17.0101 9.99996 16.5501 9.99996 16.0001L9.99996 8.00011C9.99996 7.44011 9.53996 6.98011 8.99996 7.09011Z"/></svg>

<svg xmlns="http://www.w3.org/2000/svg" fill="none" viewBox="0 0 24 24" focusable="false"><path fill="#74767B" fill-rule="evenodd" d="M10 12c0-3.32 2.68-6 6-6 3.31 0 6 2.68 6 6 0 3.31-2.69 6-6 6-3.32 0-6-2.69-6-6M9 7.09c-.71.15-1.38.45-1.94.86-.9.65-1.5 1.53-1.83 2.5-.13.42-.21.85-.23 1.27V10c0-.56-.46-1.02-1-.84a2.972 2.972 0 0 0-1.86 1.91c-.21.62-.2 1.27 0 1.85.21.63.59 1.14 1.08 1.5.25.18.51.32.78.41.54.18 1-.28 1-.83v-1.73c.02.43.1.86.23 1.27.35 1.04.99 1.9 1.83 2.5.6.44 1.25.72 1.94.86.54.11 1-.35 1-.9V8c0-.56-.46-1.02-1-.91"/></svg>
